assets/web/icons/share.svg

<svg width="24" height="24" viewBox="0 0 24 24" fill="none" xmlns="http://www.w3.org/2000/svg">
<path d="M12 16C11.7167 16 11.4792 15.9042 11.2875 15.7125C11.0958 15.5209 11 15.2834 11 15V7.85005L9.125 9.72505C8.925 9.92505 8.69167 10.025 8.425 10.025C8.15833 10.025 7.91667 9.91672 7.7 9.70005C7.5 9.50005 7.40417 9.26255 7.4125 8.98755C7.42083 8.71255 7.51667 8.48338 7.7 8.30005L11.3 4.70005C11.4 4.60005 11.5083 4.52922 11.625 4.48755C11.7417 4.44588 11.8667 4.42505 12 4.42505C12.1333 4.42505 12.2583 4.44588 12.375 4.48755C12.4917 4.52922 12.6 4.60005 12.7 4.70005L16.3 8.30005C16.5 8.50005 16.5958 8.73755 16.5875 9.01255C16.5792 9.28755 16.4833 9.51672 16.3 9.70005C16.1 9.90005 15.8625 10.0042 15.5875 10.0125C15.3125 10.0209 15.075 9.92505 14.875 9.72505L13 7.85005V15C13 15.2834 12.9042 15.5209 12.7125 15.7125C12.5208 15.9042 12.2833 16 12 16ZM6 20C5.45 20 4.97917 19.8042 4.5875 19.4125C4.19583 19.0209 4 18.55 4 18V16C4 15.7167 4.09583 15.4792 4.2875 15.2875C4.47917 15.0959 4.71667 15 5 15C5.28333 15 5.52083 15.0959 5.7125 15.2875C5.90417 15.4792 6 15.7167 6 16V18H18V16C18 15.7167 18.0958 15.4792 18.2875 15.2875C18.4792 15.0959 18.7167 15 19 15C19.2833 15 19.5208 15.0959 19.7125 15.2875C19.9042 15.4792 20 15.7167 20 16V18C20 18.55 19.8042 19.0209 19.4125 19.4125C19.0208 19.8042 18.55 20 18 20H6Z" fill="currentColor"/>
</svg>

<svg xmlns="http://www.w3.org/2000/svg" width="24" height="24" fill="currentColor" viewBox="0 0 24 24">
  <path d="M12 16a.968.968 0 0 1-.713-.287A.968.968 0 0 1 11 15V7.85L9.125 9.725c-.2.2-.433.3-.7.3-.267 0-.508-.108-.725-.325a.93.93 0 0 1-.288-.713A.977.977 0 0 1 7.7 8.3l3.6-3.6c.1-.1.208-.17.325-.213.117-.041.242-.062.375-.062s.258.02.375.062a.877.877 0 0 1 .325.213l3.6 3.6c.2.2.296.437.287.712a.977.977 0 0 1-.287.688c-.2.2-.438.304-.713.313a.93.93 0 0 1-.712-.288L13 7.85V15c0 .283-.096.52-.287.713A.968.968 0 0 1 12 16Zm-6 4c-.55 0-1.02-.196-1.412-.587A1.926 1.926 0 0 1 4 18v-2c0-.283.096-.52.287-.713A.967.967 0 0 1 5 15c.283 0 .52.096.713.287.191.192.287.43.287.713v2h12v-2a.97.97 0 0 1 .288-.713A.968.968 0 0 1 19 15a.97.97 0 0 1 .712.287c.192.192.288.43.288.713v2c0 .55-.196 1.02-.587 1.413A1.926 1.926 0 0 1 18 20H6Z"/>
</svg>
